icons-dark/apps/48/fontforge.svg

<svg xmlns="http://www.w3.org/2000/svg" viewBox="0 0 48 48">
  <defs
     id="defs4544">
    <linearGradient
       id="linearGradient4620">
      <stop
         style="stop-color:#31363b;stop-opacity:1;"
         offset="0"
         id="stop4622" />
      <stop
         style="stop-color:#4d4d4d;stop-opacity:1;"
         offset="1"
         id="stop4624" />
    </linearGradient>
    <linearGradient
       y2="548.54449"
       x2="417.55038"
       y1="513.67639"
       x1="385.48975"
       gradientTransform="matrix(0.99999993,0,0,0.99922502,-373.54374,497.05238)"
       gradientUnits="userSpaceOnUse"
       id="linearGradient3046-8"
       xlink:href="#linearGradient4227-4"
       inkscape:collect="always" />
    <linearGradient
       id="linearGradient4227-4"
       inkscape:collect="always">
      <stop
         id="stop4229-6"
         offset="0"
         style="stop-color:#292c2f;stop-opacity:1" />
      <stop
         id="stop4231-9"
         offset="1"
         style="stop-color:#000000;stop-opacity:0;" />
    </linearGradient>
    <linearGradient
       inkscape:collect="always"
       xlink:href="#linearGradient3789"
       id="linearGradient3994"
       gradientUnits="userSpaceOnUse"
       x1="20.00102"
       y1="41.939083"
       x2="20.00102"
       y2="5.977654"
       gradientTransform="matrix(0.99999993,0,0,0.99844289,0.2999998,1003.399)" />
    <linearGradient
       id="linearGradient3789">
      <stop
         style="stop-color:#d35400;stop-opacity:1;"
         offset="0"
         id="stop3791" />
      <stop
         style="stop-color:#f67400;stop-opacity:0.94117647;"
         offset="1"
         id="stop3793" />
    </linearGradient>
    <linearGradient
       y2="8"
       x2="44"
       y1="40.142857"
       x1="43.857143"
       gradientTransform="matrix(0.99999993,0,0,1.2434802,2.248596e-7,-5.94776)"
       gradientUnits="userSpaceOnUse"
       id="linearGradient4540"
       xlink:href="#linearGradient4620"
       inkscape:collect="always" />
  </defs>
  <g
     transform="translate(0,-1004.3622)">
    <path
       style="fill:url(#linearGradient4540);fill-opacity:1;fill-rule:evenodd;stroke:#000000;stroke-width:0;stroke-linecap:butt;stroke-linejoin:miter;stroke-miterlimit:4;stroke-opacity:1;stroke-dasharray:none"
       d="M 4 4 L 4 43.96875 L 44 43.96875 L 44 4 L 4 4 z "
       transform="translate(0,1004.3622)"
       id="rect3846" />
    <path
       style="opacity:0.2;fill:url(#linearGradient3046-8);fill-opacity:1;fill-rule:evenodd;stroke:none"
       d="m 40.321426,1010.432 c -8.918483,-2.9662 -8.010309,8.7208 -10.244275,14.9077 l -7.077152,16.9962 -2,2.9976 -3,0 3,2.9977 22.941611,0.031 L 44,1013.965 z"
       id="path4373-4"
       inkscape:connector-curvature="0"
       sodipodi:nodetypes="ccccccccc" />
    <path
       style="fill:#232629;fill-opacity:1;stroke-width:0;stroke-miterlimit:4;stroke-dasharray:none"
       d="M 4 5.9980469 L 4 6.9980469 L 44 6.9980469 L 44 5.9980469 L 4 5.9980469 z M 4 14.992188 L 4 15.990234 L 44 15.990234 L 44 14.992188 L 4 14.992188 z M 4 30.978516 L 4 31.978516 L 44 31.978516 L 44 30.978516 L 4 30.978516 z M 4 39.972656 L 4 40.970703 L 44 40.970703 L 44 39.972656 L 4 39.972656 z "
       transform="translate(0,1004.3622)"
       id="rect4630" />
    <path
       style="fill:url(#linearGradient3994);fill-opacity:1;stroke:none"
       d="m 18.099782,1021.3521 -4.75705,16.6177 c -0.368763,1.5096 -1.511932,6.1487 -3.097613,6.1487 -0.221258,0 -0.4793931,-0.2208 -0.4793931,-0.5154 l 0,-0.037 c 0,-0.5523 0.5162701,-0.9572 0.5162701,-1.5464 0,-0.6627 -0.8481581,-1.0677 -1.4750551,-1.0677 -1.2169184,10e-5 -1.8069411,0.8469 -1.8069411,1.7674 0,1.215 1.0325399,2.6141 3.1344902,2.6141 4.019517,0 6.084598,-5.486 6.932753,-8.5788 l 4.314534,-15.3903 6.618221,-0.012 -4.774404,16.6177 c -0.368763,1.5095 -1.511932,6.1487 -3.097612,6.1487 -0.221258,0 -0.479394,-0.2208 -0.479394,-0.5154 l 0,-0.037 c 0,-0.5523 0.516269,-0.9572 0.516269,-1.5464 0,-0.6627 -0.848157,-1.0678 -1.475054,-1.0678 -1.216919,0 -1.806941,0.8469 -1.806941,1.7674 0,1.215 1.032539,2.6141 3.134489,2.6141 4.019518,0 6.084599,-5.486 6.932755,-8.5788 l 4.314533,-15.4026 3.735359,0 0.5,-0.9992 -4,0 c 0.663774,-2.5405 1.940349,-9.5555 5.037959,-9.5555 1.364423,0 0.663777,2.5405 2.839478,2.5405 0.958785,0 1.62256,-0.7364 1.62256,-1.5464 0,-1.6569 -2.323212,-2.4301 -3.724511,-2.4301 -5.678953,0 -7.703673,6.6469 -9.031219,10.9915 l -6.609796,0 c 0.663774,-2.5405 1.664881,-9.0401 4.762491,-9.0401 1.364424,0 0.663776,2.5406 2.839479,2.5406 0.958784,0 1.62256,-0.7365 1.62256,-1.5464 0,-1.6569 -2.323212,-2.4301 -3.724512,-2.4301 -5.568323,0 -7.427681,6.1314 -8.755228,10.476 l -3.87926,0 -0.5,0.9992"
       sodipodi:nodetypes="ccsssssssccccssssssscccccssssccssssccc" />
  </g>
</svg>

<svg xmlns="http://www.w3.org/2000/svg" viewBox="0 0 48 48">
 <defs>
  <linearGradient id="a" y1="513.68" y2="548.54" x1="385.49" x2="417.55" gradientUnits="userSpaceOnUse" gradientTransform="matrix(1 0 0 .99923-373.54 497.05)">
   <stop stop-color="#292c2f"/>
   <stop offset="1" stop-opacity="0"/>
  </linearGradient>
  <linearGradient id="b" y1="41.939" y2="5.978" gradientUnits="userSpaceOnUse" x2="0" gradientTransform="matrix(1 0 0 .99844.3 1003.4)">
   <stop stop-color="#d35400"/>
   <stop offset="1" stop-color="#f67400" stop-opacity=".941"/>
  </linearGradient>
  <linearGradient id="c" y1="40.14" y2="8" x1="43.857" x2="44" gradientUnits="userSpaceOnUse" gradientTransform="matrix(1 0 0 1.24348 0-5.948)">
   <stop stop-color="#31363b"/>
   <stop offset="1" stop-color="#4d4d4d"/>
  </linearGradient>
 </defs>
 <g transform="translate(0-1004.36)">
  <g fill-rule="evenodd">
   <path fill="url(#c)" d="m4 4v39.969h40v-39.969z" transform="translate(0 1004.36)"/>
   <path opacity=".2" fill="url(#a)" d="m40.32 1010.43c-8.918-2.966-8.01 8.721-10.244 14.908l-7.077 16.996-2 2.998h-3l3 2.998 22.942.031.058-34.397z"/>
  </g>
  <path fill="#232629" d="m4 5.998v1h40v-1zm0 8.994v.998h40v-.998zm0 15.986v1h40v-1zm0 8.994v.998h40v-.998z" transform="translate(0 1004.36)"/>
  <path fill="url(#b)" d="m18.1 1021.35l-4.757 16.618c-.369 1.51-1.512 6.149-3.098 6.149-.221 0-.479-.221-.479-.515v-.037c0-.552.516-.957.516-1.546 0-.663-.848-1.068-1.475-1.068-1.217 0-1.807.847-1.807 1.767 0 1.215 1.033 2.614 3.134 2.614 4.02 0 6.085-5.486 6.933-8.579l4.315-15.39 6.618-.012-4.774 16.618c-.369 1.509-1.512 6.149-3.098 6.149-.221 0-.479-.221-.479-.515v-.037c0-.552.516-.957.516-1.546 0-.663-.848-1.068-1.475-1.068-1.217 0-1.807.847-1.807 1.767 0 1.215 1.033 2.614 3.134 2.614 4.02 0 6.085-5.486 6.933-8.579l4.315-15.403h3.735l.5-.999h-4c.664-2.54 1.94-9.556 5.04-9.556 1.364 0 .664 2.54 2.839 2.54.959 0 1.623-.736 1.623-1.546 0-1.657-2.323-2.43-3.725-2.43-5.679 0-7.704 6.647-9.03 10.991h-6.61c.664-2.54 1.665-9.04 4.762-9.04 1.364 0 .664 2.541 2.839 2.541.959 0 1.623-.736 1.623-1.546 0-1.657-2.323-2.43-3.725-2.43-5.568 0-7.428 6.131-8.755 10.476h-3.879l-.5.999"/>
 </g>
</svg>
